assets/Wolf/Flat/wolf_flat.svg

<svg width="32" height="32" viewBox="0 0 32 32" fill="none" xmlns="http://www.w3.org/2000/svg">
<path d="M26.5384 11.9606L29.9784 17.9606C30.2284 18.3906 29.9084 18.9306 29.3884 18.9306C28.9484 18.9206 28.6684 19.4106 28.8084 19.8306L29.2539 21.0706H2.81836L3.25836 19.7706C3.39836 19.3506 3.08836 18.9206 2.64836 18.9206C2.14836 18.9206 1.83836 18.3906 2.08836 17.9606L5.53836 11.9406C5.67836 11.6906 5.82836 11.4006 5.97836 11.1006L6.00836 2.67056C5.97836 2.08056 6.69836 1.77056 7.09836 2.20056L14.1684 7.60056C14.4384 7.81056 14.7784 8 15.1184 8H16.8684C17.2084 8 17.5484 7.81056 17.8184 7.60056L24.8884 2.20056C25.2884 1.77056 26.0084 2.08056 25.9784 2.67056L26.0084 10.9606C26.1584 11.2506 26.3384 11.5706 26.5384 11.9406V11.9606Z" fill="#9B9B9B"/>
<path d="M6.99835 9.77054C6.98835 10.0605 7.28835 10.2705 7.56835 10.1705L11.8684 8.61054C12.1784 8.50054 12.2484 8.08054 11.9784 7.87054L7.69835 4.60054C7.44835 4.32054 6.98835 4.52054 7.00835 4.89054L6.99835 9.77054Z" fill="#D3D3D3"/>
<path d="M25.0083 9.7706C25.0083 10.0606 24.7183 10.2706 24.4383 10.1706L20.1283 8.6106C19.8183 8.5006 19.7483 8.0806 20.0183 7.8706L24.2983 4.6006C24.5483 4.3306 25.0083 4.5306 24.9883 4.9006L25.0083 9.7706Z" fill="#D3D3D3"/>
<path d="M14.0983 30H17.9883C19.1383 30 20.1583 29.2006 20.5483 28.1206L21.2283 24.9406C21.3283 24.4806 21.7583 24.1806 22.2183 24.2306C23.7383 24.4206 26.8983 24.8006 27.5383 24.8006C28.5383 24.8006 28.2183 23.9606 28.2183 23.9606L27.8683 22.9106C27.8183 22.7606 27.6883 21.8906 28.6483 21.9006C29.7283 21.9206 29.1983 20.9106 29.1983 20.9106L24.4383 18.9106C24.4383 18.9106 21.8583 17.6506 20.5883 18.9306L17.6683 21.8706C17.6083 21.9406 17.5283 21.9906 17.4483 22.0406C17.0098 22.2798 16.5316 22.3997 16.0433 22.4105C15.555 22.3997 15.0768 22.2798 14.6383 22.0406C14.5583 21.9906 14.4783 21.9406 14.4183 21.8706L11.4983 18.9306C10.2283 17.6506 7.64831 18.9106 7.64831 18.9106L2.875 20.9106C2.875 20.9106 2.35831 21.9206 3.43831 21.9006C4.39831 21.8906 4.26831 22.7606 4.21831 22.9106L3.86831 23.9606C3.86831 23.9606 3.54831 24.8006 4.54831 24.8006C5.18831 24.8006 8.34831 24.4206 9.86831 24.2306C10.3283 24.1806 10.7583 24.4806 10.8583 24.9406L11.5383 28.1206C11.9283 29.2006 12.9483 30 14.0983 30Z" fill="#D3D3D3"/>
<path d="M11 15C11 14.4477 11.4477 14 12 14C12.5523 14 13 14.4477 13 15V16C13 16.5523 12.5523 17 12 17C11.4477 17 11 16.5523 11 16V15Z" fill="#1C1C1C"/>
<path d="M19 15C19 14.4477 19.4477 14 20 14C20.5523 14 21 14.4477 21 15V16C21 16.5523 20.5523 17 20 17C19.4477 17 19 16.5523 19 16V15Z" fill="#1C1C1C"/>
<path d="M14.7313 20H17.2706C18.3603 20 18.9155 21.521 18.1342 22.4053L16.8594 23.5844C16.3762 24.1385 15.6051 24.1385 15.1219 23.5844L13.8471 22.4053C13.0966 21.5092 13.6415 20 14.7313 20Z" fill="#1C1C1C"/>
<path d="M16.5 24.5C16.5 24.2239 16.2761 24 16 24C15.7239 24 15.5 24.2239 15.5 24.5C15.5 25.1118 15.2758 25.7539 14.8995 26.2362C14.5251 26.7161 14.0338 27 13.5 27C13.2239 27 13 27.2239 13 27.5C13 27.7761 13.2239 28 13.5 28C14.4162 28 15.1749 27.5089 15.688 26.8513C15.803 26.7039 15.9073 26.5463 16 26.3809C16.0927 26.5463 16.197 26.7039 16.312 26.8513C16.8251 27.5089 17.5838 28 18.5 28C18.7761 28 19 27.7761 19 27.5C19 27.2239 18.7761 27 18.5 27C17.9662 27 17.4749 26.7161 17.1005 26.2362C16.7242 25.7539 16.5 25.1118 16.5 24.5Z" fill="#1C1C1C"/>
</svg>

<svg xmlns="http://www.w3.org/2000/svg" width="32" height="32" fill="none"><path fill="#9B9B9B" d="m26.538 11.96 3.44 6c.25.43-.07.97-.59.97-.44-.01-.72.48-.58.9l.446 1.24H2.818l.44-1.3a.644.644 0 0 0-.61-.85c-.5 0-.81-.53-.56-.96l3.45-6.02c.14-.25.29-.54.44-.84l.03-8.43c-.03-.59.69-.9 1.09-.47l7.07 5.4c.27.21.61.4.95.4h1.75c.34 0 .68-.19.95-.4l7.07-5.4c.4-.43 1.12-.12 1.09.47l.03 8.29c.15.29.33.61.53.98v.02Z"/><path fill="#D3D3D3" d="M6.998 9.77c-.01.29.29.5.57.4l4.3-1.56c.31-.11.38-.53.11-.74L7.698 4.6c-.25-.28-.71-.08-.69.29l-.01 4.88ZM25.008 9.77c0 .29-.29.5-.57.4l-4.31-1.56a.427.427 0 0 1-.11-.74l4.28-3.27c.25-.27.71-.07.69.3l.02 4.87ZM14.098 30h3.89c1.15 0 2.17-.8 2.56-1.88l.68-3.18c.1-.46.53-.76.99-.71 1.52.19 4.68.57 5.32.57 1 0 .68-.84.68-.84l-.35-1.05c-.05-.15-.18-1.02.78-1.01 1.08.02.55-.99.55-.99l-4.76-2s-2.58-1.26-3.85.02l-2.92 2.94c-.06.07-.14.12-.22.17-.438.24-.916.36-1.405.37a3.056 3.056 0 0 1-1.405-.37.924.924 0 0 1-.22-.17l-2.92-2.94c-1.27-1.28-3.85-.02-3.85-.02l-4.773 2s-.517 1.01.563.99c.96-.01.83.86.78 1.01l-.35 1.05s-.32.84.68.84c.64 0 3.8-.38 5.32-.57.46-.05.89.25.99.71l.68 3.18c.39 1.08 1.41 1.88 2.56 1.88Z"/><path fill="#1C1C1C" d="M11 15a1 1 0 1 1 2 0v1a1 1 0 1 1-2 0v-1ZM19 15a1 1 0 1 1 2 0v1a1 1 0 1 1-2 0v-1ZM14.731 20h2.54c1.09 0 1.645 1.521.863 2.405l-1.275 1.18c-.483.553-1.254.553-1.737 0l-1.275-1.18c-.75-.896-.205-2.405.884-2.405Z"/><path fill="#1C1C1C" d="M16.5 24.5a.5.5 0 0 0-1 0c0 .612-.224 1.254-.6 1.736-.375.48-.866.764-1.4.764a.5.5 0 0 0 0 1c.916 0 1.675-.491 2.188-1.149.115-.147.22-.305.312-.47.093.165.197.323.312.47C16.825 27.51 17.584 28 18.5 28a.5.5 0 0 0 0-1c-.534 0-1.025-.284-1.4-.764a2.902 2.902 0 0 1-.6-1.736Z"/></svg>
